src/assets/wave.svg

<?xml version="1.0" encoding="utf-8"?>
<!-- Generator: Adobe Illustrator 25.0.0, SVG Export Plug-In . SVG Version: 6.00 Build 0)  -->
<svg version="1.1" id="visual" xmlns="http://www.w3.org/2000/svg" xmlns:xlink="http://www.w3.org/1999/xlink" x="0px" y="0px"
	 viewBox="0 0 900 600" style="enable-background:new 0 0 900 600;" xml:space="preserve">
<style type="text/css">
	.st0{fill:#FFCB77;}
</style>
<path class="st0" d="M0,197l37.5-1.5C75,194,150,191,225,228.3c75,37.4,150,115,225,143.7s150,8.3,225-16.7s150-54.6,187.5-69.5
	L900,271v330h-37.5c-37.5,0-112.5,0-187.5,0s-150,0-225,0s-150,0-225,0s-150,0-187.5,0H0V197z"/>
</svg>

<svg id="visual" viewBox="0 0 900 600" width="900" height="600" xmlns="http://www.w3.org/2000/svg" xmlns:xlink="http://www.w3.org/1999/xlink" version="1.1"><rect x="0" y="0" width="900" height="600" fill="#2d2925"></rect><path d="M0 197L37.5 195.5C75 194 150 191 225 228.3C300 265.7 375 343.3 450 372C525 400.7 600 380.3 675 355.3C750 330.3 825 300.7 862.5 285.8L900 271L900 601L862.5 601C825 601 750 601 675 601C600 601 525 601 450 601C375 601 300 601 225 601C150 601 75 601 37.5 601L0 601Z" fill="#ffcb77" stroke-linecap="round" stroke-linejoin="miter"></path></svg>
